Numix-GalliumOS/64/mimetypes/wps-office-wps.svg

<svg xmlns="http://www.w3.org/2000/svg" xmlns:xlink="http://www.w3.org/1999/xlink" width="64px" height="64px" viewBox="0 0 64 64" version="1.1">
<g id="surface1">
<path style=" stroke:none;fill-rule:nonzero;fill:rgb(20.392157%,40.784314%,80.784314%);fill-opacity:1;" d="M 10.671875 0 C 9.296875 0 8 1.355469 8 2.789062 L 8 61.210938 C 8 62.566406 9.375 64 10.671875 64 L 53.328125 64 C 54.625 64 56 62.566406 56 61.210938 L 56 18 L 38 0 Z M 10.671875 0 "/>
<path style=" stroke:none;fill-rule:nonzero;fill:rgb(0%,0%,0%);fill-opacity:0.196078;" d="M 42 18 L 56 32 L 56 18 Z M 42 18 "/>
<path style=" stroke:none;fill-rule:nonzero;fill:rgb(100%,100%,100%);fill-opacity:0.392157;" d="M 38 0 L 55.984375 18 L 40.757812 18 C 39.410156 18 38 16.574219 38 15.226562 Z M 38 0 "/>
<path style=" stroke:none;fill-rule:evenodd;fill:rgb(97.647059%,97.647059%,97.647059%);fill-opacity:1;" d="M 20 22 L 32 22 L 32 32 L 20 32 Z M 20 22 "/>
<path style=" stroke:none;fill-rule:evenodd;fill:rgb(97.647059%,97.647059%,97.647059%);fill-opacity:1;" d="M 34 22 L 44 22 L 44 24 L 34 24 Z M 34 22 "/>
<path style=" stroke:none;fill-rule:nonzero;fill:rgb(0%,0%,0%);fill-opacity:0.196078;" d="M 8 48 L 8 61.335938 C 8 62.632812 9.375 64 10.664062 64 L 53.335938 64 C 54.625 64 56 62.632812 56 61.335938 L 56 48 Z M 8 48 "/>
<path style=" stroke:none;fill-rule:evenodd;fill:rgb(97.647059%,97.647059%,97.647059%);fill-opacity:1;" d="M 34 26 L 44 26 L 44 28 L 34 28 Z M 34 26 "/>
<path style=" stroke:none;fill-rule:nonzero;fill:rgb(100%,100%,100%);fill-opacity:1;" d="M 23.523438 54.945312 C 23.574219 55.171875 23.65625 55.445312 23.757812 55.769531 C 23.867188 56.105469 23.972656 56.46875 24.097656 56.863281 C 24.230469 57.261719 24.363281 57.695312 24.515625 58.152344 C 24.671875 58.613281 24.824219 59.078125 24.964844 59.5625 C 24.964844 58.953125 24.957031 58.296875 24.949219 57.605469 C 24.933594 56.902344 24.921875 56.1875 24.90625 55.453125 C 24.890625 54.730469 24.882812 53.996094 24.863281 53.253906 C 24.855469 52.503906 24.847656 51.78125 24.847656 51.089844 L 27.105469 51.089844 C 27.0625 51.980469 27.023438 52.90625 26.980469 53.855469 C 26.949219 54.796875 26.898438 55.730469 26.847656 56.671875 C 26.796875 57.605469 26.730469 58.511719 26.648438 59.417969 C 26.582031 60.320312 26.507812 61.175781 26.414062 61.984375 L 24.390625 61.984375 C 24.097656 61.253906 23.816406 60.460938 23.523438 59.609375 C 23.230469 58.753906 22.941406 57.9375 22.648438 57.160156 C 22.359375 57.902344 22.058594 58.710938 21.742188 59.578125 C 21.425781 60.445312 21.132812 61.253906 20.875 61.984375 L 18.851562 61.984375 C 18.75 61.175781 18.648438 60.320312 18.574219 59.417969 C 18.492188 58.503906 18.425781 57.578125 18.359375 56.652344 C 18.308594 55.710938 18.257812 54.78125 18.21875 53.839844 C 18.175781 52.886719 18.152344 51.972656 18.117188 51.089844 L 20.375 51.089844 C 20.367188 51.78125 20.351562 52.496094 20.332031 53.238281 C 20.324219 53.980469 20.308594 54.722656 20.300781 55.453125 C 20.28125 56.1875 20.265625 56.902344 20.257812 57.605469 C 20.242188 58.296875 20.234375 58.953125 20.234375 59.5625 C 20.359375 59.1875 20.492188 58.769531 20.632812 58.328125 C 20.792969 57.878906 20.933594 57.445312 21.066406 57.003906 C 21.214844 56.570312 21.347656 56.171875 21.464844 55.8125 C 21.582031 55.445312 21.675781 55.15625 21.742188 54.945312 L 23.523438 54.945312 "/>
<path style=" stroke:none;fill-rule:nonzero;fill:rgb(100%,100%,100%);fill-opacity:1;" d="M 31.988281 50.964844 C 33.546875 50.964844 34.753906 51.253906 35.613281 51.832031 C 36.46875 52.398438 36.902344 53.320312 36.902344 54.613281 C 36.902344 55.914062 36.460938 56.863281 35.59375 57.445312 C 34.738281 58.019531 33.511719 58.3125 31.929688 58.3125 L 31.0625 58.3125 L 31.0625 61.984375 L 28.628906 61.984375 L 28.628906 51.230469 C 28.863281 51.1875 29.128906 51.148438 29.421875 51.105469 C 29.722656 51.074219 30.023438 51.046875 30.328125 51.039062 C 30.628906 51.015625 30.929688 50.996094 31.222656 50.988281 C 31.511719 50.972656 31.769531 50.964844 31.988281 50.964844 M 32.269531 52.855469 C 32.121094 52.855469 31.921875 52.855469 31.65625 52.871094 C 31.40625 52.871094 31.203125 52.878906 31.0625 52.90625 L 31.0625 56.429688 L 32.054688 56.429688 C 32.828125 56.429688 33.414062 56.289062 33.8125 56.019531 C 34.203125 55.738281 34.402344 55.261719 34.402344 54.597656 C 34.402344 53.964844 34.203125 53.511719 33.8125 53.253906 C 33.429688 52.988281 32.914062 52.855469 32.269531 52.855469 "/>
<path style=" stroke:none;fill-rule:nonzero;fill:rgb(100%,100%,100%);fill-opacity:1;" d="M 42.042969 60.402344 C 42.449219 60.402344 42.792969 60.371094 43.050781 60.300781 C 43.335938 60.21875 43.550781 60.109375 43.710938 59.984375 C 43.867188 59.84375 43.96875 59.6875 44.027344 59.527344 C 44.09375 59.34375 44.125 59.167969 44.125 58.996094 C 44.125 58.769531 44.050781 58.570312 43.902344 58.394531 C 43.757812 58.21875 43.574219 58.070312 43.351562 57.9375 C 43.125 57.796875 42.875 57.679688 42.601562 57.570312 C 42.316406 57.453125 42.042969 57.34375 41.769531 57.253906 C 41.402344 57.136719 41.019531 57.003906 40.617188 56.84375 C 40.226562 56.695312 39.859375 56.503906 39.527344 56.269531 C 39.210938 56.027344 38.953125 55.746094 38.734375 55.402344 C 38.527344 55.054688 38.417969 54.621094 38.417969 54.105469 C 38.417969 53.078125 38.792969 52.28125 39.527344 51.707031 C 40.285156 51.128906 41.308594 50.847656 42.617188 50.847656 C 43.367188 50.847656 44.027344 50.921875 44.574219 51.074219 C 45.140625 51.222656 45.617188 51.398438 46 51.582031 L 45.292969 53.253906 C 44.957031 53.089844 44.59375 52.953125 44.183594 52.828125 C 43.785156 52.714844 43.324219 52.65625 42.792969 52.65625 C 41.5 52.65625 40.859375 53.070312 40.859375 53.90625 C 40.859375 54.121094 40.925781 54.304688 41.050781 54.472656 C 41.183594 54.621094 41.351562 54.761719 41.550781 54.894531 C 41.757812 55.011719 41.992188 55.121094 42.242188 55.210938 C 42.507812 55.304688 42.757812 55.394531 43.007812 55.472656 C 43.390625 55.605469 43.792969 55.753906 44.199219 55.914062 C 44.625 56.070312 45.007812 56.277344 45.351562 56.546875 C 45.707031 56.804688 45.992188 57.136719 46.214844 57.535156 C 46.441406 57.921875 46.558594 58.410156 46.558594 59.011719 C 46.558594 60.035156 46.183594 60.828125 45.425781 61.394531 C 44.691406 61.945312 43.558594 62.21875 42.042969 62.21875 C 41.027344 62.21875 40.21875 62.128906 39.609375 61.933594 C 39.003906 61.734375 38.542969 61.550781 38.242188 61.394531 L 38.960938 59.628906 C 39.308594 59.820312 39.734375 59.996094 40.226562 60.160156 C 40.726562 60.320312 41.335938 60.402344 42.042969 60.402344 "/>
<path style=" stroke:none;fill-rule:evenodd;fill:rgb(97.647059%,97.647059%,97.647059%);fill-opacity:1;" d="M 34 30 L 44 30 L 44 32 L 34 32 Z M 34 30 "/>
<path style=" stroke:none;fill-rule:evenodd;fill:rgb(97.647059%,97.647059%,97.647059%);fill-opacity:1;" d="M 20 34 L 44 34 L 44 36 L 20 36 Z M 20 34 "/>
<path style=" stroke:none;fill-rule:evenodd;fill:rgb(97.647059%,97.647059%,97.647059%);fill-opacity:1;" d="M 20 38 L 44 38 L 44 40 L 20 40 Z M 20 38 "/>
<path style=" stroke:none;fill-rule:evenodd;fill:rgb(97.647059%,97.647059%,97.647059%);fill-opacity:1;" d="M 20 42 L 44 42 L 44 44 L 20 44 Z M 20 42 "/>
</g>
</svg>

<svg xmlns="http://www.w3.org/2000/svg" viewBox="0 0 64 64">
 <g>
  <path d="m 10.672 0 c -1.375 0 -2.672 1.355 -2.672 2.789 l 0 58.42 c 0 1.355 1.375 2.789 2.672 2.789 l 42.656 0 c 1.297 0 2.672 -1.434 2.672 -2.789 l 0 -43.21 l -18 -18 m -27.328 0" style="fill:#3468ce;fill-opacity:1;stroke:none;fill-rule:nonzero"/>
  <path d="m 42 18 l 14 14 l 0 -14 m -14 0" style="fill:#000;fill-opacity:0.196;stroke:none;fill-rule:nonzero"/>
  <path d="m 38 0 l 17.984 18 l -15.227 0 c -1.348 0 -2.758 -1.426 -2.758 -2.773 m 0 -15.227" style="fill:#fff;fill-opacity:0.392;stroke:none;fill-rule:nonzero"/>
  <path d="m 20 22 l 12 0 l 0 10 l -12 0 m 0 -10" style="fill:#f9f9f9;fill-opacity:1;stroke:none;fill-rule:evenodd"/>
  <path d="m 34 22 l 10 0 l 0 2 l -10 0 m 0 -2" style="fill:#f9f9f9;fill-opacity:1;stroke:none;fill-rule:evenodd"/>
  <path d="m 8 48 l 0 13.336 c 0 1.297 1.375 2.664 2.664 2.664 l 42.672 0 c 1.289 0 2.664 -1.367 2.664 -2.664 l 0 -13.336 m -48 0" style="fill:#000;fill-opacity:0.196;stroke:none;fill-rule:nonzero"/>
  <path d="m 34 26 l 10 0 l 0 2 l -10 0 m 0 -2" style="fill:#f9f9f9;fill-opacity:1;stroke:none;fill-rule:evenodd"/>
  <path d="m 23.523 54.945 c 0.051 0.227 0.133 0.5 0.234 0.824 c 0.109 0.336 0.215 0.699 0.34 1.094 c 0.133 0.398 0.266 0.832 0.418 1.289 c 0.156 0.461 0.309 0.926 0.449 1.41 c 0 -0.609 -0.008 -1.266 -0.016 -1.957 c -0.016 -0.703 -0.027 -1.418 -0.043 -2.152 c -0.016 -0.723 -0.023 -1.457 -0.043 -2.199 c -0.008 -0.75 -0.016 -1.473 -0.016 -2.164 l 2.258 0 c -0.043 0.891 -0.082 1.816 -0.125 2.766 c -0.031 0.941 -0.082 1.875 -0.133 2.816 c -0.051 0.934 -0.117 1.84 -0.199 2.746 c -0.066 0.902 -0.141 1.758 -0.234 2.566 l -2.023 0 c -0.293 -0.73 -0.574 -1.523 -0.867 -2.375 c -0.293 -0.855 -0.582 -1.672 -0.875 -2.449 c -0.289 0.742 -0.59 1.551 -0.906 2.418 c -0.316 0.867 -0.609 1.676 -0.867 2.406 l -2.023 0 c -0.102 -0.809 -0.203 -1.664 -0.277 -2.566 c -0.082 -0.914 -0.148 -1.84 -0.215 -2.766 c -0.051 -0.941 -0.102 -1.871 -0.141 -2.813 c -0.043 -0.953 -0.066 -1.867 -0.102 -2.75 l 2.258 0 c -0.008 0.691 -0.023 1.406 -0.043 2.148 c -0.008 0.742 -0.023 1.484 -0.031 2.215 c -0.02 0.734 -0.035 1.449 -0.043 2.152 c -0.016 0.691 -0.023 1.348 -0.023 1.957 c 0.125 -0.375 0.258 -0.793 0.398 -1.234 c 0.16 -0.449 0.301 -0.883 0.434 -1.324 c 0.148 -0.434 0.281 -0.832 0.398 -1.191 c 0.117 -0.367 0.211 -0.656 0.277 -0.867 l 1.781 0" style="fill:#fff;fill-opacity:1;stroke:none;fill-rule:nonzero"/>
  <path d="m 31.988 50.965 c 1.559 0 2.766 0.289 3.625 0.867 c 0.855 0.566 1.289 1.488 1.289 2.781 c 0 1.301 -0.441 2.25 -1.309 2.832 c -0.855 0.574 -2.082 0.867 -3.664 0.867 l -0.867 0 l 0 3.672 l -2.434 0 l 0 -10.754 c 0.234 -0.043 0.5 -0.082 0.793 -0.125 c 0.301 -0.031 0.602 -0.059 0.906 -0.066 c 0.301 -0.023 0.602 -0.043 0.895 -0.051 c 0.289 -0.016 0.547 -0.023 0.766 -0.023 m 0.281 1.891 c -0.148 0 -0.348 0 -0.613 0.016 c -0.25 0 -0.453 0.008 -0.594 0.035 l 0 3.523 l 0.992 0 c 0.773 0 1.359 -0.141 1.758 -0.41 c 0.391 -0.281 0.59 -0.758 0.59 -1.422 c 0 -0.633 -0.199 -1.086 -0.59 -1.344 c -0.383 -0.266 -0.898 -0.398 -1.543 -0.398" style="fill:#fff;fill-opacity:1;stroke:none;fill-rule:nonzero"/>
  <path d="m 42.04 60.4 c 0.406 0 0.75 -0.031 1.01 -0.102 c 0.285 -0.082 0.5 -0.191 0.66 -0.316 c 0.156 -0.141 0.258 -0.297 0.316 -0.457 c 0.066 -0.184 0.098 -0.359 0.098 -0.531 c 0 -0.227 -0.074 -0.426 -0.223 -0.602 c -0.145 -0.176 -0.328 -0.324 -0.551 -0.457 c -0.227 -0.141 -0.477 -0.258 -0.75 -0.367 c -0.285 -0.117 -0.559 -0.227 -0.832 -0.316 c -0.367 -0.117 -0.75 -0.25 -1.152 -0.41 c -0.391 -0.148 -0.758 -0.34 -1.09 -0.574 c -0.316 -0.242 -0.574 -0.523 -0.793 -0.867 c -0.207 -0.348 -0.316 -0.781 -0.316 -1.297 c 0 -1.027 0.375 -1.824 1.109 -2.398 c 0.758 -0.578 1.781 -0.859 3.09 -0.859 c 0.75 0 1.41 0.074 1.957 0.227 c 0.566 0.148 1.043 0.324 1.426 0.508 l -0.707 1.672 c -0.336 -0.164 -0.699 -0.301 -1.109 -0.426 c -0.398 -0.113 -0.859 -0.172 -1.391 -0.172 c -1.293 0 -1.934 0.414 -1.934 1.25 c 0 0.215 0.066 0.398 0.191 0.566 c 0.133 0.148 0.301 0.289 0.5 0.422 c 0.207 0.117 0.441 0.227 0.691 0.316 c 0.266 0.094 0.516 0.184 0.766 0.262 c 0.383 0.133 0.785 0.281 1.191 0.441 c 0.426 0.156 0.809 0.363 1.152 0.633 c 0.355 0.258 0.641 0.59 0.863 0.988 c 0.227 0.387 0.344 0.875 0.344 1.477 c 0 1.023 -0.375 1.816 -1.133 2.383 c -0.734 0.551 -1.867 0.824 -3.383 0.824 c -1.016 0 -1.824 -0.09 -2.434 -0.285 c -0.605 -0.199 -1.066 -0.383 -1.367 -0.539 l 0.719 -1.766 c 0.348 0.191 0.773 0.367 1.266 0.531 c 0.5 0.16 1.109 0.242 1.816 0.242" style="fill:#fff;fill-opacity:1;stroke:none;fill-rule:nonzero"/>
  <path d="m 34 30 l 10 0 l 0 2 l -10 0 m 0 -2" style="fill:#f9f9f9;fill-opacity:1;stroke:none;fill-rule:evenodd"/>
  <path d="m 20 34 l 24 0 l 0 2 l -24 0 m 0 -2" style="fill:#f9f9f9;fill-opacity:1;stroke:none;fill-rule:evenodd"/>
  <path d="m 20 38 l 24 0 l 0 2 l -24 0 m 0 -2" style="fill:#f9f9f9;fill-opacity:1;stroke:none;fill-rule:evenodd"/>
  <path d="m 20 42 l 24 0 l 0 2 l -24 0 m 0 -2" style="fill:#f9f9f9;fill-opacity:1;stroke:none;fill-rule:evenodd"/>
 </g>
</svg>
